X:14132
T:Reel des Oignons
C:Joseph Allard
M:2/4
L:1/16
K:G
d2|gage d2Bd|c2A2 A4|feee eddd|dccc c2B2|!
gage d2Bd|c2A2 A4|fgfe dcBA|G2B2 G2:|!
|:Bc|d2g2 g2fg|a6Bc|d2a2 a2ga|b6Bc|!
d2g2 g2fg|a6Bc|d2a2 agba|g6:|!
